packages/assets/static/images/icons/bold/question--bold.svg

<svg width="24" height="24" viewBox="0 0 24 24" xmlns="http://www.w3.org/2000/svg">
<path d="M14 16.875C14 17.1717 13.912 17.4617 13.7472 17.7084C13.5824 17.955 13.3481 18.1473 13.074 18.2608C12.7999 18.3744 12.4983 18.4041 12.2074 18.3462C11.9164 18.2883 11.6491 18.1454 11.4393 17.9357C11.2296 17.7259 11.0867 17.4586 11.0288 17.1676C10.9709 16.8767 11.0007 16.5751 11.1142 16.301C11.2277 16.0269 11.42 15.7926 11.6666 15.6278C11.9133 15.463 12.2033 15.375 12.5 15.375C12.8978 15.375 13.2794 15.533 13.5607 15.8143C13.842 16.0956 14 16.4772 14 16.875ZM22.625 12C22.625 14.0025 22.0312 15.9601 20.9186 17.6251C19.8061 19.2902 18.2248 20.5879 16.3747 21.3543C14.5246 22.1206 12.4888 22.3211 10.5247 21.9305C8.56066 21.5398 6.75656 20.5755 5.34055 19.1595C3.92454 17.7435 2.96023 15.9393 2.56955 13.9753C2.17888 12.0112 2.37939 9.97543 3.14572 8.12533C3.91206 6.27523 5.20981 4.69392 6.87486 3.58137C8.5399 2.46882 10.4975 1.875 12.5 1.875C15.1844 1.87798 17.758 2.94567 19.6562 4.84383C21.5543 6.74199 22.622 9.3156 22.625 12ZM20.375 12C20.375 10.4425 19.9131 8.91992 19.0478 7.62488C18.1825 6.32985 16.9526 5.32049 15.5136 4.72445C14.0747 4.12841 12.4913 3.97246 10.9637 4.27632C9.43607 4.58017 8.03288 5.3302 6.93154 6.43153C5.8302 7.53287 5.08018 8.93606 4.77632 10.4637C4.47246 11.9913 4.62841 13.5747 5.22445 15.0136C5.82049 16.4526 6.82985 17.6825 8.12489 18.5478C9.41993 19.4131 10.9425 19.875 12.5 19.875C14.5879 19.8728 16.5896 19.0424 18.066 17.566C19.5424 16.0896 20.3728 14.0879 20.375 12ZM12.5 6C10.2256 6 8.375 7.68188 8.375 9.75V10.125C8.375 10.4234 8.49353 10.7095 8.70451 10.9205C8.91549 11.1315 9.20164 11.25 9.5 11.25C9.79837 11.25 10.0845 11.1315 10.2955 10.9205C10.5065 10.7095 10.625 10.4234 10.625 10.125V9.75C10.625 8.92313 11.4688 8.25 12.5 8.25C13.5313 8.25 14.375 8.92313 14.375 9.75C14.375 10.5769 13.5313 11.25 12.5 11.25C12.2016 11.25 11.9155 11.3685 11.7045 11.5795C11.4935 11.7905 11.375 12.0766 11.375 12.375V13.125C11.3743 13.4029 11.4766 13.6713 11.662 13.8783C11.8475 14.0854 12.103 14.2164 12.3793 14.2462C12.6557 14.276 12.9333 14.2025 13.1586 14.0398C13.3839 13.8771 13.5411 13.6367 13.5997 13.365C15.3416 12.9262 16.625 11.4722 16.625 9.75C16.625 7.68188 14.7744 6 12.5 6Z"/>
</svg>

<svg viewBox="0 0 24 24" xmlns="http://www.w3.org/2000/svg" aria-hidden="true" fill="currentColor"><path d="M14 16.875a1.5 1.5 0 1 1-3 0 1.5 1.5 0 0 1 3 0M22.625 12A10.124 10.124 0 1 1 12.5 1.875 10.136 10.136 0 0 1 22.625 12m-2.25 0a7.875 7.875 0 1 0-7.875 7.875A7.883 7.883 0 0 0 20.375 12M12.5 6c-2.274 0-4.125 1.682-4.125 3.75v.375a1.125 1.125 0 1 0 2.25 0V9.75c0-.827.844-1.5 1.875-1.5s1.875.673 1.875 1.5-.844 1.5-1.875 1.5a1.125 1.125 0 0 0-1.125 1.125v.75a1.125 1.125 0 0 0 2.225.24c1.742-.439 3.025-1.893 3.025-3.615 0-2.068-1.85-3.75-4.125-3.75"/></svg>
